X:1
T:Con lei fuss'io
T:Con lei fuss'io
T:Giaches de Ponto (= Jacques du Pont)
T:Source : Musica divina---Anversa---P.Phalesio & G.Bellero---1583. Editor: André Vierendeels (04/12/13).
C:Giaches de Ponto
%%score [ 1 2 [ 3 4 ] ]
L:1/8
Q:1/4=140
M:4/4
K:C
V:1 treble nm="Canto" snm="C"
V:2 treble nm="Alto" snm="A"
V:3 treble-8 nm="Tenor 1" snm="T 1"
V:4 treble-8 nm="Tenor 2" snm="T 2"
V:1
 A8- | A8 | A8 | c8- | c4 B2 A2 | B4 c4- | c2 c2 c4 | e4 e4 | d8- | d4 c2 B2 | c8 | z4 e4 | %12
w: Con|_|lei|fus-||s'io da|_ che si|part' il|so-||le,|e|
 e4 e2 d2- | d2 d2 e4- | e4 d4 | c4 B4 | A4 c4- | c4 B2 A2 | B8- | B8 | z8 | z8 | z8 | z8 | z4 c4 | %25
w: non si ve-|* des- s'al-|* tri|che le|stel- *||le|_|||||e|
 c6 d2 | e4 f4 | d4 c2 e2- | e2 d2 c4- | c4 B2 A2 | B8 | z2 c4 d2- | d2 B4 c2- | c2 B2 A2 G2 | A8 | %35
w: non si|trans- for-|mas- s'in ver-|* de sel-||va,|per us-|* cir mi|_ di brac- *|cia,|
 G4 e4- | e4 e4 | d8 | c4 c4- | c4 c4 | c2 c4 c2 | B4 A4 | c4 d4 | B8 | A8 | z4 f4 | f6 e2 | d8- | %48
w: co- m'el|_ gior-|no|ch'A- pol-|* lo|la se- gui-|a qua|giu per|ter-|ra:|ma|io fa-|ro|
 d4 c4 | c8 | B8 | c4 c4 | d8 | G8- | G8 | z8 | z8 | z8 | z8 | z8 | z4 c4- |: c2 c2 c4 | d4 e4 | %63
w: _ sot'|ter-|ra'in|se- ca|sel-|va,|_||||||pri-|* ma ch'a|si dol-|
 f8- | f4 e4 | d4 c4 | B4 A4- | A4 G4 |1 A4 c4- :|2"^#" A4 G4 || A8- | A8 | z4 A4 | F4 D4 | d8- | %75
w: c'al-|* b'ar-|ri- v'il|so- *||le, pri-|(so)- *|le,|_|at-|tri- v'il|so-|
 d4 c2 B2 | ^c8 |] %77
w: |le.|
V:2
 E8- | E8 | F8 | G8 | G8 | z4 G4- | G2 G2 A4 | B4 c4 | A8- | A8 | A8 | A4 E4 | E2 G4 G2 | D4 G4- | %14
w: Con|_|lei|fus-|s'io|da|_ che si|part' il|so-||le,|e non|si ve- des-|s'al- tri|
 G4 G4 | G4 G4- | G4 F4 | G8- | G8- | G8- | G8 | z8 | z8 | z8 | z4 G4 | G6 G2 | c4 A4 | B4 G2 c2- | %28
w: _ che|le stel-||le:|_||||||e|non si|trans- for-|mas- s'in ver|
 c2 B2 A4- | A4 G2 F2 | G4 z2 G2- | G2 A4 F2- | F2 G4 E2- | E2 F4 E2 |"^#" F2 G4 F2 | G4 c4- | %36
w: _ de sel-||va per|_ us- cir|_ mi di|_ brac- *||cia co-|
 c4 c4 | B8 | A4 A4- | A4 A4 | A2 A4 A2 | G4 E4 | A4 A4 | G8- | G4 F2 E2 | F4 A4 | A6 A2 | %47
w: * m'el|gior-|no ch'A-|* pol-|lo la se-|guia qua|giu per|ter-||ra: ma-|io fa-|
"^b" B4 A4- | A2 G2 G4- |"^#" G4 F4 | G4 G4 | G4 A4 | F8 | E8 | z2 G4 E2- | E2 A4 D2- | D2 D2 E4- | %57
w: ro _|_ sot' ter|_ _|ra in|se- ca|sel-|va,|e'l gior-|* n'an- dra|_ pien di|
 E2 D2 C2 G2- | G2 F4 E2- | E2 D2 E4 | z4 E4- |: E2 E2 E4 | G4 G4 | A8- | A4 G4 | G8- | G4 E4 | %67
w: _ mi- nu- te|_ stel- *|* * le,|pri-|* ma ch'a|si dol-|c'al-|* b'ar-|ri-|* v'il|
 E8 |1 A,4 E4- :|2 E8 || C4 E4 | C4 A,4 | A8- | A8 | A8- | A8- | A8 |] %77
w: so-|le, pri-|so-|le, ar-|ri- v'il|so-||le.|_||
V:3
 c8- | c8 | c8 | e8 | d8 | z4 e4- | e2 e2 e4 | g4 g4 | f8 | e8- | e8 | z4 c4 | B4 B2 B2- | %13
w: lei|_|fus-|s'io|da|che|_ si part'|il so-|le,||e|non|si ve- des-|
 B2 B2 c4- | c4 d4 | e4 d4 | c8 | d8 | z4 d4 | G4 d4 | e4 d4 | c4 B4 | A4 G2 f2- | f2 e4 d2 | %24
w: * s'al- tri|* che|le stel-|le:|sol|u-|na not-|t'e mai|non fos-|s'al- ba *||
 e4 e4 | e6 d2 | c4 c4 | g4 e2 g2- | g2 g2 e4 | e8- | e8 | z4 z2 d2- | d2 e4 c2- | c2 d4 e2 | %34
w: e non|si trans-|for- mas-|s'in ver- de|* sel- va,|per|_|us-|_ cir mi|_ di brac-|
 d2 c2 d4 | G4 g4- | g4 g4 | g8 | e4 f4- | f4 e4 | f2 e4 e2 | e4 c4 | f4 f4 | d8- | d8 | d8 | %46
w: cia, * co-|m'el gior-|_ no|ch'A-|pol- lo|* la|se- gui- a|qua giu|per ter-|ra:||ma|
 z4 f4 | f6 e2 | d4 e4 | c6 d2 | e4 d4- | d2 c2 c4- | c4 B4 | c8- | c8 | z4 f4 | d4 g4 | c6 d2 | %58
w: io|fa- ro|sot'- ter-|ra *|in se-|_ ca sel-|_ va,|e'l|_|gior-|n'an- dra|pien di|
 e2 d2 B2 c2 | A4 B4 | z4 c4- |: c2 c2 c4 | B4 B4 | c8- | c4 c4 | d4 e4 | d2 c2 B2 A2 | B8 |1 %68
w: mi- nu- te stel-|le, pri-|ma|* ch'a si|dol- c'al|b'ar-|_ ri-|v'il so-|le, * * *|pri-|
 z4 c4- :|2 B8 || A8 | e4 c4 | A4 a4- | a2 g2 f2 e2 | f8 | e8- | e8 |] %77
w: (so)-|le,|ar-|ri- v'il|so- le.|||Con|_|
V:4
 A8- | A8 | F8 | C8 | G8 | z4 c4- | c2 c2 A4 | G4 C4 | D8 | A8- | A8 | z4 A4 | E4 E2 G2- | %13
w: lei|_|fus-|s'io|da|che|_ si part'|il so-|le,|e|_|non|si ve- des-|
 G2 G2 C4- | C4 G4 | c4 G4 | A8 | G8- | G8 | z4 G4 | C4 G4 | A4 G4 | F4 E2 D2- | D2 C2 F4 | E4 C4 | %25
w: * s'al tri|_ che|le stel-|le:|sol|_|u-|na not-|t'e mai|non fos- s'al-|* ba *|e non|
 c6 B2 | A4 F4 | G4 C2 c2- | c2 G2 A4 | E8- | E8 | z8 | z8 | z8 | z8 | z4 c4- | c4 c4 | G8 | %38
w: si trans-|for- mas-|s'in ver- de|* sel- va,|co-|_|||||me'l|* gior-|no|
 A4 F4- | F4 A4 | F2 A4 A2 | E4 A4 | F4 D4 | G8 | D8- | D8 | z4 d4 | d6 c2 | B4 c4 | A8 | G8 | %51
w: ch'A- pol-|* lo|le se- quia|qua giu|per ter-|ra:|ma|_|io|fa- ro|sot' ter-|ra'in|se-|
 E4 F4 | D8 | C8 | z4 c4 | A4 d4 | G4 G4 | A6 G2 | E2 F2 G2 A2 | F4 E4 | z4 A4- |: A2 A2 A4 | %62
w: ca sel-|va,|e'l|gior-|n'an- dra|pien di|mi- nu-|te- * stel- *|le, pri-|ma|* ch'a si|
 G4 G4 | F8- | F4 C4 | G4 c4 | G4 A4 | E8 |1 z4 A4- :|2 E8 || A8 | z4 A4 | F4 D4 | d8- | d8 | A8- | %76
w: dol- c'al-|b'ar-|* ri-|v'il so-|le, *|pri-|(so)-|le,|ar|ri-|v'il so-|le.||Jª°?eã|
 A8 |] %77
w: _|

